modules/linea-weather/icons/weather-waning-cresent.svg

<svg xmlns="http://www.w3.org/2000/svg" width="64" height="64" viewBox="0 0 64 64"><circle fill="none" stroke="#000" stroke-width="2" stroke-miterlimit="10" cx="32.002" cy="31.999" r="31"/><path fill="none" stroke="#000" stroke-width="2" stroke-miterlimit="10" d="M41.002 61.999c-13.242-3.528-22-15.646-22-30 0-14.355 8.756-26.473 22-30M34 5h13m-20 6h28m-33 6h37m-39 6h42m-43 6h44m-44 6h44m-43 6h42m-39 6h36m-32 6h28m-21 6h13"/></svg>

<svg xmlns="http://www.w3.org/2000/svg" width="64" height="64" viewBox="0 0 64 64"><circle fill="none" stroke="#000" stroke-width="2" stroke-miterlimit="10" cx="32.002" cy="31.999" r="31"/><path fill="none" stroke="#000" stroke-width="2" stroke-miterlimit="10" d="M41.002 61.999c-13.242-3.528-22-15.646-22-30 0-14.355 8.756-26.473 22-30M34 5h13M27 11h28M22 17h37M20 23h42M19 29h44M19 35h44M20 41h42M23 47h36M27 53h28M34 59h13"/></svg>
